X: 2
T: When The Cock Crows It Is Day
R: jig
M: 6/8
L: 1/8
K: Gmaj
D|GAB BAG|d3 d2B|GAB BAG|A3 ABA|GAB BAG|c2d ege|dBG AGE|G3 G2:|d|gdd gdd|c3 c2d|gdd gdB|A3 ABd|gdd gdB|c2d ege|dBG AGE|G3 G2:|


Tune 2483	Setting 27364

